svg/material-icons/oil_barrel/materialiconsround/20px.svg

<svg xmlns="http://www.w3.org/2000/svg" width="20" height="20" viewBox="0 0 20 20"><path d="M16.25 10.75c.41 0 .75-.34.75-.75s-.34-.75-.75-.75h-.75V4.5h.75c.41 0 .75-.34.75-.75S16.66 3 16.25 3H3.75c-.41 0-.75.34-.75.75s.34.75.75.75h.75v4.75h-.75c-.41 0-.75.34-.75.75s.34.75.75.75h.75v4.75h-.75c-.41 0-.75.34-.75.75s.34.75.75.75h12.5c.41 0 .75-.34.75-.75s-.34-.75-.75-.75h-.75v-4.75h.75zM10 13c-1.24 0-2.25-.99-2.25-2.21 0-.91.34-1.21 1.87-2.98.2-.23.55-.23.75 0 1.53 1.76 1.87 2.07 1.87 2.98.01 1.22-1 2.21-2.24 2.21z"/></svg>

<svg xmlns="http://www.w3.org/2000/svg" enable-background="new 0 0 20 20" height="20" viewBox="0 0 20 20" width="20"><g><rect fill="none" height="20" width="20"/></g><g><path d="M16.25,10.75c0.41,0,0.75-0.34,0.75-0.75s-0.34-0.75-0.75-0.75H15.5V4.5h0.75C16.66,4.5,17,4.16,17,3.75S16.66,3,16.25,3 H3.75C3.34,3,3,3.34,3,3.75S3.34,4.5,3.75,4.5H4.5v4.75H3.75C3.34,9.25,3,9.59,3,10s0.34,0.75,0.75,0.75H4.5v4.75H3.75 C3.34,15.5,3,15.84,3,16.25S3.34,17,3.75,17h12.5c0.41,0,0.75-0.34,0.75-0.75s-0.34-0.75-0.75-0.75H15.5v-4.75H16.25z M10,13 c-1.24,0-2.25-0.99-2.25-2.21c0-0.91,0.34-1.21,1.87-2.98c0.2-0.23,0.55-0.23,0.75,0c1.53,1.76,1.87,2.07,1.87,2.98 C12.25,12.01,11.24,13,10,13z"/></g></svg>
